X:1
T:Estudillo, CMD
T:Estudillo, CMD
T:Emanuel Poppen. 1901
T:Public Domain Courtesy of the Cyber Hymnal™
C:Emanuel Poppen. 1901
Z:Public Domain
Z:Courtesy of the Cyber Hymnal™
%%score ( 1 2 ) ( 3 4 )
L:1/8
Q:1/4=110
M:4/4
K:Eb
V:1 treble 
V:2 treble 
V:3 bass 
V:4 bass 
V:1
 [GB]2 | [Ac]2 [GB]2 [EG]2 E2 | [DG]3 [DF] E2 E2 | [DF]2 [DF]2 [CE]2 [DF]2 | [EG]6 [EB]2 | %5
 [Ec]2 [EB]2!<(! [EG]2!<)! [Ge]2 | d2 (z c) [DB]2 [^CG]2 | [DF]2 [Fd]2!<(! [=Ed]2!<)! [_Ec]2 | %8
 [DB]6 B2 | [Ad]3 [Ad] [Ac]2 [AB]2 | [Ge]2 [EG]2 [GB]2 [EB]2 |!<(! [Ec]2!<)! [EB]2 [FA]2 [EG]2 | %12
 [DF]6!<(! [DF]2!<)! | [CE]2 [DF]2 [EG]3 [EG] | [EA]2 [EB]2 !fermata![Ec]2 [Ec]2 | %15
!<(! [EB]3!<)! [EA] [EG]2 [DF]2 | E6 |] %17
V:2
 x2 | x6 E2 | x4 E2 E2 | x8 | x8 | x8 | (^FD) D2 x4 | x8 | x6 B2 | x8 | x8 | x8 | x8 | x8 | x8 | %15
 x8 | E6 |] %17
V:3
 [E,E]2 | [E,E]2 [E,E]2 [E,B,]2 [E,G,]2 | [B,,B,]3 [B,,A,] [E,G,]2 [E,G,]2 | %3
 [B,,B,]2 [=B,,A,]2 [C,G,]2 [_B,,_B,]2 | [E,B,]6 [E,G,]2 | [E,A,]2 [E,G,]2 [E,B,]2 (CB,) | %6
 (A,F,) ([=E,G,][^F,A,]) [G,B,]2 [E,B,]2 | [F,B,]2 [F,B,]2 [C,B,]2 [F,=A,]2 | [B,,B,]6 [B,D]2 | %9
 [B,F]2 [B,F]2 [B,E]2 [B,D]2 | [E,E]2 [E,B,]2 [E,E]2 [E,G,]2 | [E,A,]2 [E,G,]2 [E,B,]2 [E,B,]2 | %12
 [B,,B,]6 [=B,,A,]2 | [C,G,]2 [B,,B,]2 [E,B,]3 [_D,B,] | %14
 [C,A,]2 [E,G,]2 !fermata![A,,A,]2 [=A,,^F,]2 | [B,,G,]3 [B,,C] [B,,B,]2 [B,,A,]2 | [E,G,]6 |] %17
V:4
 x2 | x8 | x8 | x8 | x8 | x6 C,2 | D,2 x6 | x8 | x8 | x8 | x8 | x8 | x8 | x8 | x8 | x8 | x6 |] %17

